X: 34394
T: Richard Brennan's
R: jig
M: 6/8
K: Dmajor
|:B|A2F FEF|D3 FEF|DFA dAF|E3 EDB|
A2F FEF|D3 FEF|DFA dAF|D3 D2:|
|:g|fdf ece|d3 AFD|fdf ece|dfb a2g|
fdf ece|d3 AFD|DFA dAF|D3 D2:|

